X: 15
T: Comme femme
N: Derived from Tin3002-Comme_femme.krn
C: Johannes Tinctoris
%%abc-version 2.0
%%abcx-abcm2ps-target-version 5.9.1 (29 Sep 2008)
%%abc-creator hum2abc beta
%%abcx-conversion-date 2019/02/17 07:34:55
%%abc-edited-by Jesse Rodin
%%abc-edited-by Chris Gage 02-05-2015
%%abcx-initial-encoding-date 2015/02/22/
%%humdrum-veritas 979391373
%%humdrum-veritas-data 3407175622
%%linebreak <none>
%%barnumbers 0
L: 1/4
M: 3/1
Q: 1/2=120
K: C clef=treble
GFEDGABcAGFE/D/ | 
E2FGAGFED4 | 
z2C3DEFGABc | 
AGFE[M:3/1](3:2:7F2G2A2_B2A GF2 | 
(3:2:8E2F2G2-G4A2B2G2A2- | 
(3:2:10A B c de2-e2d2G2d4G2 | 
(3:2:1d2c2(3:2:2BA2B2(3:2:5A G FG2C2 | 
(3:2:2G4d2c2(3B A G^F2(3:2:2EF2 | 
[M:3/1]GFEDGABcdcBA | 
BAGFGFEDGFED | 
E2G2C2G2F3E | 
DCD4C_B,A,4 | 
G,A,B,CD2EFGABc | 
Bcdec2BAGFED | 
C2A,3B,CDEFGA | 
GFED/E/FGABc2BA | 
BAGFEDCB,A,B,CD | 
EFGA/G/FEDCB,3A, | 
C4z4c4 | 
c3BG4A2GF | 
E4EDEFGFED | 
EDEFGABcd2cB | 
cBAGF3EGABc | 
dcBABAGFGFED | 
CDEFGFEDEDCB, | 
(3:2:7A,2C2D2E4B,2B,2^C4 | 
(3:2:7D2F4D2E2D2-D2d4 | 
(3c3BA2G4(3:2:2F2E4 | 
D4z4D2F2- | 
FGA2D2G4F2 | 
G2C3DEFGFED | 
GABcdcBAB2AB | 
cBAGF4z2_B2- | 
BAF3GA3GF2 | 
E2FGAGFED2G2- | 
GFA3G^FEF2EF | 
[M:3/1](3:2:11G2E2D2G2A2B2E2G F E D | 
(3:2:6C2E4C2F4E2D4 | 
[M:3/1]CB,A,B,CDEFG2A2- | 
AGFEF2EDCDEF | 
GABcd2cBAGFE/F/ | 
GFEDFEDCB,4 | 
z2C3DEFGFED | 
GABcBAGF/G/AGFE | 
D2G3FD4A,2- | 
A,B,CDEFGABcde | 
c3BAGB3AGF | 
G3FEDGFEDCD | 
EFGABcdedcBA | 
GFEDC4z2C2- | 
CDEFG4z2G2- | 
GABcB2z2z4 :



% FRACTION = 0.5BUT SHOULD BE 0
% FRACTION = 0.5BUT SHOULD BE 0
% FRACTION = 0.5BUT SHOULD BE 0
